src/assets/svg/Frame 16-2.svg

<svg width="63" height="63" viewBox="0 0 63 63" fill="none" xmlns="http://www.w3.org/2000/svg">
<path d="M24.7774 43.7903C24.4414 43.7903 24.1054 43.6617 23.8481 43.407L6.21598 25.7723C4.16848 23.7248 4.16848 20.3937 6.21598 18.3462C8.26873 16.2987 11.5972 16.3039 13.6395 18.3462L29.4184 34.125C29.9302 34.6369 29.9302 35.469 29.4184 35.9809C28.9065 36.4928 28.0744 36.4928 27.5625 35.9809L11.7836 20.202C10.7651 19.1835 9.10086 19.1809 8.07186 20.202C7.57836 20.6982 7.30273 21.357 7.30273 22.0579C7.30273 22.7614 7.57573 23.4203 8.07186 23.9164L25.7066 41.5485C26.2185 42.0604 26.2185 42.8925 25.7066 43.4044C25.4494 43.6617 25.1134 43.7903 24.7774 43.7903Z" fill="black"/>
<path d="M34.0594 30.7965C33.7234 30.7965 33.3874 30.6678 33.1301 30.4132L15.498 12.7785C14.4716 11.7521 12.81 11.7521 11.7836 12.7785C11.2901 13.2746 11.0145 13.9335 11.0145 14.6343C11.0145 15.3352 11.2875 15.9941 11.7836 16.4902L13.6395 18.3461C14.1514 18.858 14.1514 19.6901 13.6395 20.202C13.1276 20.7138 12.2955 20.7138 11.7836 20.202L9.92778 18.3461C8.93553 17.3538 8.38953 16.0361 8.38953 14.6343C8.38953 13.2326 8.93553 11.9148 9.92778 10.9226C11.9096 8.9407 15.3668 8.93545 17.3539 10.9226L34.986 28.5573C35.4979 29.0692 35.4979 29.9013 34.986 30.4132C34.7288 30.6705 34.3954 30.7965 34.0594 30.7965Z" fill="black"/>
<path d="M39.6296 25.2289C39.2936 25.2289 38.9576 25.1002 38.7004 24.8456L24.7774 10.9226C23.751 9.89624 22.092 9.89624 21.0656 10.9226C20.0419 11.9464 20.0419 13.6106 21.0656 14.6344C21.5775 15.1462 21.5775 15.9784 21.0656 16.4902C20.5537 17.0021 19.7216 17.0021 19.2097 16.4902C17.1649 14.4454 17.1649 11.1116 19.2097 9.06674C21.2546 7.02186 24.5884 7.02186 26.6332 9.06674L40.5562 22.9897C41.0681 23.5016 41.0681 24.3337 40.5562 24.8456C40.3016 25.1002 39.9656 25.2289 39.6296 25.2289Z" fill="black"/>
<path d="M38.1964 59.4667C37.3117 59.4667 36.4166 59.367 35.5294 59.1648L13.4269 54.0986C12.4714 53.8991 11.5815 53.4108 10.857 52.6863C9.86473 51.6941 9.3161 50.3737 9.3161 48.9746C9.3161 47.5728 9.86473 46.2551 10.857 45.2628C11.5395 44.5803 12.369 44.1105 13.2641 43.8926C13.2904 43.8821 13.3166 43.8768 13.3429 43.8689L24.4729 41.1993C25.179 41.0234 25.8877 41.4671 26.0557 42.1706C26.2237 42.8767 25.788 43.5828 25.0845 43.7534L14.0306 46.4047C13.9965 46.4152 13.9624 46.4257 13.9256 46.4336C13.4846 46.5307 13.0646 46.7696 12.7129 47.1213C12.2167 47.6175 11.9411 48.2763 11.9411 48.9772C11.9411 49.6781 12.2141 50.3369 12.7129 50.8331C13.062 51.1822 13.4951 51.429 13.9309 51.5261C13.9492 51.5287 13.965 51.5313 13.9807 51.5366L36.1174 56.6107C39.2227 57.3221 42.4174 56.4033 44.667 54.1511L55.4085 43.4069C57.1436 41.6718 58.0991 39.3644 58.0991 36.9101C58.0991 34.4557 57.1436 32.1509 55.4085 30.4132L32.2061 7.21082C31.1797 6.18445 29.5207 6.18445 28.4944 7.21082C27.4706 8.23457 27.4706 9.89882 28.4944 10.9226C29.0062 11.4344 29.0062 12.2666 28.4944 12.7784C27.9825 13.2903 27.1504 13.2903 26.6385 12.7784C24.5936 10.7336 24.5936 7.39982 26.6385 5.35495C28.6834 3.31007 32.0171 3.31007 34.062 5.35495L57.2644 28.5573C59.4982 30.7886 60.7241 33.7522 60.7241 36.9101C60.7241 40.068 59.4956 43.0316 57.2644 45.2628L46.5229 56.007C44.2706 58.2513 41.2886 59.4667 38.1964 59.4667Z" fill="black"/>
</svg>

<svg xmlns="http://www.w3.org/2000/svg" width="63" height="63" fill="#000" xmlns:v="https://vecta.io/nano"><path d="M24.777 43.79a1.32 1.32 0 0 1-.929-.383L6.216 25.772a5.26 5.26 0 0 1 0-7.426 5.26 5.26 0 0 1 7.424 0l15.779 15.779c.512.512.512 1.344 0 1.856s-1.344.512-1.856 0L11.784 20.202c-1.018-1.019-2.683-1.021-3.712 0a2.62 2.62 0 0 0-.769 1.856 2.61 2.61 0 0 0 .769 1.858l17.635 17.632c.512.512.512 1.344 0 1.856a1.31 1.31 0 0 1-.929.386z"/><path d="M34.059 30.797a1.32 1.32 0 0 1-.929-.383L15.498 12.779c-1.026-1.026-2.688-1.026-3.714 0-.493.496-.769 1.155-.769 1.856s.273 1.36.769 1.856l1.856 1.856c.512.512.512 1.344 0 1.856s-1.344.512-1.856 0l-1.856-1.856c-.992-.992-1.538-2.31-1.538-3.712s.546-2.719 1.538-3.712c1.982-1.982 5.439-1.987 7.426 0l17.632 17.635c.512.512.512 1.344 0 1.856a1.3 1.3 0 0 1-.927.383z"/><path d="M39.63 25.229a1.32 1.32 0 0 1-.929-.383L24.777 10.923c-1.026-1.026-2.685-1.026-3.712 0a2.63 2.63 0 0 0 0 3.712c.512.512.512 1.344 0 1.856s-1.344.512-1.856 0a5.26 5.26 0 0 1 0-7.423 5.26 5.26 0 0 1 7.423 0L40.556 22.99c.512.512.512 1.344 0 1.856a1.31 1.31 0 0 1-.927.383z"/><path d="M38.196 59.467c-.885 0-1.78-.1-2.667-.302l-22.103-5.066c-.956-.2-1.845-.688-2.57-1.412a5.22 5.22 0 0 1-1.541-3.712c0-1.402.549-2.72 1.541-3.712a5.12 5.12 0 0 1 2.407-1.37c.026-.011.053-.016.079-.024l11.13-2.67a1.31 1.31 0 0 1 1.583.971c.168.706-.268 1.412-.971 1.583l-11.054 2.651-.105.029c-.441.097-.861.336-1.213.688a2.61 2.61 0 0 0-.772 1.856 2.6 2.6 0 0 0 .772 1.856c.349.349.782.596 1.218.693.018.003.034.005.05.011l22.137 5.074a9.13 9.13 0 0 0 8.55-2.46l10.741-10.744c1.735-1.735 2.691-4.042 2.691-6.497a9.13 9.13 0 0 0-2.691-6.497L32.206 7.211a2.62 2.62 0 0 0-3.712 0 2.63 2.63 0 0 0 0 3.712c.512.512.512 1.344 0 1.856s-1.344.512-1.856 0a5.26 5.26 0 0 1 0-7.423 5.26 5.26 0 0 1 7.423 0l23.202 23.202a11.72 11.72 0 0 1 3.46 8.353 11.73 11.73 0 0 1-3.46 8.353L46.523 56.007c-2.252 2.244-5.234 3.46-8.327 3.46z"/></svg>
